X:1
T:2 Gesänge, Op.91
T:Gestillte Sehnsucht
T:2 Gesänge, Op. 91
T:Johannes Brahms 
T:Friedrich Rückert
T:1. Gestillte Sehnsucht
T:Creative Commons copyright waiver (CC0 1.0 Universal)
T:Creative Commons copyright waiver (CC0 1.0 Universal)
T:Creative Commons copyright waiver (CC0 1.0 Universal)
T:Creative Commons copyright waiver (CC0 1.0 Universal)
T:Creative Commons copyright waiver (CC0 1.0 Universal)
T:Creative Commons copyright waiver (CC0 1.0 Universal)
T:Creative Commons copyright waiver (CC0 1.0 Universal)
T:Creative Commons copyright waiver (CC0 1.0 Universal)
C:Johannes Brahms
Z:Friedrich Rückert
Z:Creative Commons copyright waiver (CC0 1.0 Universal)
%%score 1 2 { ( 3 4 ) | 5 }
L:1/8
Q:1/4=71
M:2/4
K:D
V:1 treble nm="Singstimme\nVoice"
V:2 alto nm="Bratsche\nViola"
V:3 treble nm="Pianoforte"
V:4 treble 
V:5 bass 
V:1
"^Adagio espressivo" z2 | z4 | z4 | z4 | z4 | z4 | z4 | z4 | z4 | z4 | z4 | z4 | z4 | z2 z A | %14
w: |||||||||||||In|
 F E D F | G3 E | C D z d | A G F A | (D F2) E | A,2 z D | (EF) (G^G) | (A>F) A3/2 D/ | %22
w: gold- nen A- bend-|schein ge-|tau- chet, wie|fei- er- lich die|Wäl- * der-|stehn! In|lei- * se _|Stim- * men der|
 G3/2 ^E/ (G>F) | =E B c d | (c^G) (A^D) | (E^EF) =D | C2 z2 | z2 z/ (FD/) | (D2- D/C/) E/ G/ | %29
w: Vög- lein hau- *|chet des A- bend-|win- * des _|lei- * * ses|Wehn.|Was _|lis- * * peln die|
 ^E F z/ (dA/) | (A2- A/F/) (G/e/) | (GF) z d | (dB) B G | (GE) (EF) | F2 E2 | z2 F2 | A3 B | %37
w: Win- de, die _|Vö- * * ge- *|lein? _ Sie|lis- * peln die|Welt  _ in  _|Schlum- mer,|in|Schlum- mer|
 D2 z2 | z4 | z4 | z4 | z2 z D ||[K:F] A3/2 B/ c3/2 d/ | _e3/2 c/ B A | z F G3/2 G/ | A d c3/2 B/ | %46
w: ein.||||Ihr|Wün- sche, die ihr|stets euch re- get|im Her- zen|son- der Rast und|
 A2 z2 | z2 z D | A =B ^c d | =e3/2 _B/ B A | z d c3/2 B/ | A2 z F | G3 G | A2 z2 | z2 z/ (^FD/) | %55
w: Ruh!|Du|Seh- nen, das die|Brust be- we- get,|wann ru- hest|du, wann|schlum- merst|du?|Beim _|
 (D2- D/^C/) E/ G/ | ^E ^F z/ (dA/) | (A2- A/^F/) (G/e/) | (G^F) z d | (dA) =c _B | (B^F) A G | %61
w: Lis- * * peln der|Win- de, der _|Vö- * * ge- *|lein, _ ihr|seh- * nen- den|Wün- * sche, wann|
 =F2 E2 | z2 F2 | A3 B | D2 z2 | z4 | z4 | z2 z A ||[K:D] F E D F | G3 E | C D z d | A G F A | %72
w: schlaft ihr,|wann|schlaft ihr|ein?|||Ach,|wenn nicht mehr in|gold- ne|Fer- nen mein|Geist auf Traum- ge-|
 (D F2) E | A,2 z D | (EF) (G^G) | A3/2 F/ A3/2 D/ | (G>^E) G F | (=EB) c d | (c^GA) ^D | %79
w: fie- * der|eilt, nicht|mehr _ an _|e- wig fer- nen|Ster- * nen mit|seh- * nen- dem|Blick _ _ mein-|
 (E^EF) =D | C2 z2 | z2 z/ (FD/) | (D2- D/C/) E/ G/ | ^E F z/ (dA/) | (A2- A/F/) (G/e/) | %85
w: Au- * * ge|weilt;|dann _|lis- * * peln die|Win- de, die _|Vö- * * ge- *|
 (GF) z d- | d B2 G- | G (E2 F- | F) E2 z | z2 F2 | A4- | A2 B2 | D2 z2 | z4 | z4 | z4 | z4 | z4 | %98
w: lein _ mit|_ mei- nem|_ Seh- *|* nen|mein|Le-|* ben|ein.||||||
 !fermata!z2 |] %99
w: |
V:2
 z/!p! (F,D,/) | (D,2- D,/C,/E,/G,/) | (^E,>F,-) F,/(DA,/) | (A,2- A,/F,/G,/E/) | %4
!p!"_cresc." (G,2- G,/F,/A/D/) | (A2- A/F/A/D/) | (G2- G/!<(!^E/G/A,/) | (F/^D/F/B,/) (c/^A/c/E/) | %8
 (e/B/!<)!!f!!>(!=d-) d/(^G/A/B/)!>)! |!p! ((A/B/=c/)(F/ =G/A/))(G/A/ | %10
 _B/)(E/F/G/)"_dim." ((F/G/A/)(^D/ | E/!<(!F/))(E/F/!<)!!>(! G/E/C/B,/)!>)! | z4 | z4 | z4 | z4 | %16
 z4 | z4 | z4 | z4 | z4 | z4 | z4 | z4 | z4 | z4 | z4 | z4 | z4 | z4 | z4 | z4 | z4 | z4 | z4 | %35
 z4 | z4 | z4 | z4 | z4 | z4 | z4 ||[K:F] z4 | z4 | z4 | z4 | z4 | z4 | z4 | z4 | z4 | z4 | z4 | %53
 z4 | z4 | z4 | z4 | z4 | z4 | z4 | z4 | z4 | z4 | z4 | z4 | z4 | z4 | z4 ||[K:D] z4 | z4 | z4 | %71
 z4 | z4 | z4 | z4 | z4 | z4 | z4 | z4 | z4 | z4 | z4 | z4 | z4 | z4 | z4 | z4 | z4 | z4 | z4 | %90
 z4 | z4 | z4 | z4 | z4 | z4 | z4 | z4 | z2 |] %99
V:3
 (6:4:3z/ F2 x/ | (6:4:3z/ G2 x/ (6:4:3z/ E2 x/ | (6:4:3z/ A2 x/[K:bass] (6:4:3z/ D2 x/ | %3
 (6:4:3z/ F2 x/ (6:4:3z/ E2 x/ | z4 | z4 | z4 | z4 | z4 | z4 | z4 | z4 | z4 | z4 | z4 | z4 | z4 | %17
 z4 | z4 | z4 | z4 | z4 | z4 | z4 | z4 | z4 | z4 | z4 | z4 | z4 | z4 | z4 | z4 | z4 | z4 | z4 | %36
 z4 | z4 | z4 | z4 | z4 | z4 ||[K:F] z4 | z4 | z4 | z4 | z4 | z4 | z4 | z4 | z4 | z4 | z4 | z4 | %54
 z4 | z4 | z4 | z4 | z4 | z4 | z4 | z4 | z4 | z4 | z4 | z4 | z4 | z4 ||[K:D] z4 | z4 | z4 | z4 | %72
 z4 | z4 | z4 | z4 | z4 | z4 | z4 | z4 | z4 | z4 | z4 | z4 | z4 | z4 | z4 | z4 | z4 | z4 | z4 | %91
 z4 | z4 | z4 | z4 | z4 | z4 | z4 | z2 |] %99
V:4
 (6:4:6x/ (F/D/A,/[I:staff +1]F,/A,,/) | %1
[I:staff -1] (6:4:6x/ (G/D/G,/[I:staff +1]D,/B,,/)[I:staff -1] (6:4:6x/ (E/C/G,/[I:staff +1]C,/A,,/) | %2
 (6:4:6x/ A/D/A,/[I:staff +1]F,/D,/[I:staff -1][K:bass][I:staff -1] (6:4:6x/ (D/A,/F,/[I:staff +1]D,/A,,/) | %3
[I:staff -1] (6:4:6x/ (F/D/A,/[I:staff +1]F,/D,/)[I:staff -1] (6:4:6x/ (E/A,/G,/[I:staff +1]E,/A,,/) | %4
 x4 | x4 | x4 | x4 | x4 | x4 | x4 | x4 | x4 | x4 | x4 | x4 | x4 | x4 | x4 | x4 | x4 | x4 | x4 | %23
 x4 | x4 | x4 | x4 | x4 | x4 | x4 | x4 | x4 | x4 | x4 | x4 | x4 | x4 | x4 | x4 | x4 | x4 | x4 || %42
[K:F] x4 | x4 | x4 | x4 | x4 | x4 | x4 | x4 | x4 | x4 | x4 | x4 | x4 | x4 | x4 | x4 | x4 | x4 | %60
 x4 | x4 | x4 | x4 | x4 | x4 | x4 | x4 ||[K:D] x4 | x4 | x4 | x4 | x4 | x4 | x4 | x4 | x4 | x4 | %78
 x4 | x4 | x4 | x4 | x4 | x4 | x4 | x4 | x4 | x4 | x4 | x4 | x4 | x4 | x4 | x4 | x4 | x4 | x4 | %97
 x4 | x2 |] %99
V:5
!p!"^legato" D,,2 | E,,2 A,,,2 | D,,2 F,,2 | B,,,2 C,,2 | z4 | z4 | z4 | z4 | z4 | z4 | z4 | z4 | %12
 z4 | z4 | z4 | z4 | z4 | z4 | z4 | z4 | z4 | z4 | z4 | z4 | z4 | z4 | z4 | z4 | z4 | z4 | z4 | %31
 z4 | z4 | z4 | z4 | z4 | z4 | z4 | z4 | z4 | z4 | z4 ||[K:F] z4 | z4 | z4 | z4 | z4 | z4 | z4 | %49
 z4 | z4 | z4 | z4 | z4 | z4 | z4 | z4 | z4 | z4 | z4 | z4 | z4 | z4 | z4 | z4 | z4 | z4 | z4 || %68
[K:D] z4 | z4 | z4 | z4 | z4 | z4 | z4 | z4 | z4 | z4 | z4 | z4 | z4 | z4 | z4 | z4 | z4 | z4 | %86
 z4 | z4 | z4 | z4 | z4 | z4 | z4 | z4 | z4 | z4 | z4 | z4 | z2 |] %99

